packages/mask/src/plugins/Avatar/assets/mask.light.svg

<svg width="32" height="31" viewBox="0 0 32 31" fill="none" xmlns="http://www.w3.org/2000/svg">
<rect x="0.880859" y="0.966797" width="30.2381" height="30" rx="15" fill="url(#paint0_linear_4144_3926449)"/>
<rect x="0.880859" y="0.966797" width="30.2381" height="30" rx="15" fill="url(#paint1_linear_4144_3926449)"/>
<path fill-rule="evenodd" clip-rule="evenodd" d="M24.7619 12.564V17.4251H10.1581L9.52975 17.4252C10.1948 20.3747 12.834 22.5779 15.9885 22.5779C18.5965 22.5779 20.8522 21.0721 21.9314 18.8836L24.7619 18.8835V22.9668C24.7619 23.9333 23.9773 24.7168 23.0094 24.7168H8.98976C8.02191 24.7168 7.2373 23.9333 7.2373 22.9668V12.564H24.7619ZM20.2506 18.8835C19.3212 20.2404 17.759 21.1308 15.9885 21.1308C14.218 21.1308 12.6558 20.2404 11.7264 18.8835H20.2506ZM12.2513 13.7307C10.8779 13.7307 9.7418 14.7448 9.55284 16.064L11.0467 16.064C11.2109 15.5563 11.6881 15.189 12.2513 15.189C12.8144 15.189 13.2917 15.5563 13.4559 16.064L14.9497 16.064C14.7608 14.7448 13.6246 13.7307 12.2513 13.7307ZM19.7479 13.7307C18.3746 13.7307 17.2384 14.7448 17.0495 16.064L18.5433 16.064C18.7075 15.5563 19.1848 15.189 19.7479 15.189C20.311 15.189 20.7883 15.5563 20.9525 16.064L22.4463 16.064C22.2574 14.7448 21.1212 13.7307 19.7479 13.7307ZM23.0094 7.2168C23.9773 7.2168 24.7619 8.0003 24.7619 8.9668V11.1057H7.2373V8.9668C7.2373 8.0003 8.02191 7.2168 8.98976 7.2168H23.0094Z" fill="white"/>
<defs>
<linearGradient id="paint0_linear_4144_3926449" x1="0.880859" y1="15.9668" x2="31.119" y2="15.9668" gradientUnits="userSpaceOnUse">
<stop offset="0.0103167" stop-color="#6298EA" stop-opacity="0.2"/>
<stop offset="0.0104167" stop-color="#6298EA" stop-opacity="0.2"/>
<stop offset="1" stop-color="#627EEA" stop-opacity="0.2"/>
</linearGradient>
<linearGradient id="paint1_linear_4144_3926449" x1="15.9999" y1="0.966797" x2="15.9999" y2="30.9668" gradientUnits="userSpaceOnUse">
<stop stop-color="white" stop-opacity="0"/>
<stop offset="1" stop-color="white" stop-opacity="0.9"/>
</linearGradient>
</defs>
</svg>

<svg xmlns="http://www.w3.org/2000/svg" fill="none" viewBox="0 0 32 31">
    <rect width="30.238" height="30" x=".881" y=".967" fill="url(#mask_light_svg__a)" rx="15"/>
    <rect width="30.238" height="30" x=".881" y=".967" fill="url(#mask_light_svg__b)" rx="15"/>
    <path fill="#fff" fill-rule="evenodd" d="M24.762 12.564v4.861H9.53a6.62 6.62 0 0 0 6.459 5.153 6.621 6.621 0 0 0 5.942-3.694h2.83v4.083c0 .966-.784 1.75-1.752 1.75H8.99a1.751 1.751 0 0 1-1.752-1.75V12.564h17.525Zm-4.511 6.32a5.157 5.157 0 0 1-4.263 2.247c-1.77 0-3.332-.89-4.262-2.247h8.525Zm-8-5.153a2.725 2.725 0 0 0-2.698 2.333h1.494a1.266 1.266 0 0 1 2.409 0h1.494a2.725 2.725 0 0 0-2.699-2.333Zm7.497 0a2.725 2.725 0 0 0-2.699 2.333h1.494a1.266 1.266 0 0 1 2.41 0h1.493a2.725 2.725 0 0 0-2.698-2.333Zm3.261-6.514c.968 0 1.753.783 1.753 1.75v2.139H7.237v-2.14c0-.966.785-1.75 1.753-1.75h14.02Z" clip-rule="evenodd"/>
    <defs>
        <linearGradient id="mask_light_svg__a" x1=".881" x2="31.119" y1="15.967" y2="15.967" gradientUnits="userSpaceOnUse">
            <stop offset=".01" stop-color="#6298EA" stop-opacity=".2"/>
            <stop offset=".01" stop-color="#6298EA" stop-opacity=".2"/>
            <stop offset="1" stop-color="#627EEA" stop-opacity=".2"/>
        </linearGradient>
        <linearGradient id="mask_light_svg__b" x1="16" x2="16" y1=".967" y2="30.967" gradientUnits="userSpaceOnUse">
            <stop stop-color="#fff" stop-opacity="0"/>
            <stop offset="1" stop-color="#fff" stop-opacity=".9"/>
        </linearGradient>
    </defs>
</svg>
